X: 34061
T: Reel De La Petite Chapelle De Bois
R: reel
M: 4/4
K: Amixolydian
AB|:cAFA BA (3Bcd|cAFA EAAB|cAca gedB|cedB cAAB|
cAFA BA (3Bcd|cAFA EAAB|cAca gedB|1 cedB (3cdc AB:|2 cedB cAcd||
|:efga gdBd|gfga gfed|cdef edcB|AEAB cBcd|
efga gdBd|gfga gfed|cdef edcB|1 Aage aAcd:|2 Aage a2||

